public/assets/home/60f8d0c642c4405fe15e5ee0_80s Pop.svg

<svg width="122" height="45" viewBox="0 0 122 45" fill="none" xmlns="http://www.w3.org/2000/svg">
<g filter="url(#filter0_d)">
<g filter="url(#filter1_i)">
<path d="M74.6098 38.0072L65.4409 27.2536C64.9937 26.7291 64.3277 26.4427 63.6393 26.4789C61.7789 26.5768 60.6363 24.4738 61.7308 22.9663L65.6871 17.5172C66.5236 16.3649 67.7795 15.5876 69.184 15.3529L119.24 6.98658C119.74 6.90292 120.194 7.29414 120.185 7.80152L120.056 14.8678C120.053 15.0297 120.002 15.1872 119.908 15.3194C111.491 27.2149 99.8207 36.477 80.4878 40.1448C78.2914 40.5615 76.0603 39.7084 74.6098 38.0072Z" fill="#FF71C6"/>
</g>
<path d="M74.6098 38.0072L65.4409 27.2536C64.9937 26.7291 64.3277 26.4427 63.6393 26.4789C61.7789 26.5768 60.6363 24.4738 61.7308 22.9663L65.6871 17.5172C66.5236 16.3649 67.7795 15.5876 69.184 15.3529L119.24 6.98658C119.74 6.90292 120.194 7.29414 120.185 7.80152L120.056 14.8678C120.053 15.0297 120.002 15.1872 119.908 15.3194C111.491 27.2149 99.8207 36.477 80.4878 40.1448C78.2914 40.5615 76.0603 39.7084 74.6098 38.0072Z" stroke="#1F2024" stroke-width="3.24518"/>
<g filter="url(#filter2_i)">
<path d="M51.2654 39.8162C62.7064 28.4182 69.387 19.3036 75.728 6.23143C76.8945 3.82654 74.7302 1.19736 72.1203 1.77444C48.052 7.0963 28.6331 9.91183 4.81431 9.54659C4.36047 9.53963 3.98462 9.90504 3.98462 10.3589V13.7268C3.98462 13.8713 4.01929 14.0073 4.09391 14.131C8.68976 21.7479 24.7234 35.8992 45.4139 41.4337C47.5081 41.9939 49.7297 41.3461 51.2654 39.8162Z" fill="#FFFA8F"/>
</g>
<path d="M51.2654 39.8162C62.7064 28.4182 69.387 19.3036 75.728 6.23143C76.8945 3.82654 74.7302 1.19736 72.1203 1.77444C48.052 7.0963 28.6331 9.91183 4.81431 9.54659C4.36047 9.53963 3.98462 9.90504 3.98462 10.3589V13.7268C3.98462 13.8713 4.01929 14.0073 4.09391 14.131C8.68976 21.7479 24.7234 35.8992 45.4139 41.4337C47.5081 41.9939 49.7297 41.3461 51.2654 39.8162Z" stroke="#1F2024" stroke-width="3.24518"/>
<path d="M58.7019 23.7083C58.2497 19.0355 14.5361 11.3479 13.0287 13.3075C11.5213 15.2671 20.3846 27.4767 31.1171 31.0944C44.5327 35.6165 59.1541 28.3811 58.7019 23.7083Z" fill="#1F2024"/>
<mask id="mask0" mask-type="alpha" maskUnits="userSpaceOnUse" x="12" y="12" width="47" height="21">
<path d="M58.7018 23.7083C58.2496 19.0355 14.5359 11.3479 13.0286 13.3075C11.5212 15.2671 20.3845 27.4767 31.117 31.0944C44.5325 35.6165 59.154 28.3811 58.7018 23.7083Z" fill="#1F2024"/>
</mask>
<g mask="url(#mask0)">
<path d="M38.2101 5.27344H41.5071L26.1443 37.7252H22.8473L38.2101 5.27344Z" fill="white"/>
<path d="M26.4463 5.27344H36.2336L20.8708 37.7252H11.0835L26.4463 5.27344Z" fill="white"/>
</g>
<path d="M69.716 23.7083C70.1682 19.0355 113.882 11.3479 115.389 13.3075C116.897 15.2671 108.033 27.4767 97.3008 31.0944C83.8852 35.6165 69.2637 28.3811 69.716 23.7083Z" fill="#1F2024"/>
<mask id="mask1" mask-type="alpha" maskUnits="userSpaceOnUse" x="69" y="12" width="47" height="21">
<path d="M69.716 23.7083C70.1682 19.0355 113.882 11.3479 115.389 13.3075C116.897 15.2671 108.033 27.4767 97.3008 31.0944C83.8852 35.6165 69.2637 28.3811 69.716 23.7083Z" fill="#1F2024"/>
</mask>
<g mask="url(#mask1)">
<path d="M103.925 5.27344H112.901L97.5379 37.7252H88.5619L103.925 5.27344Z" fill="white"/>
<path d="M97.4345 5.27344H100.731L85.3686 37.7252H82.0717L97.4345 5.27344Z" fill="white"/>
</g>
</g>
<defs>
<filter id="filter0_d" x="0.739472" y="0.0715332" width="121.068" height="44.8068" filterUnits="userSpaceOnUse" color-interpolation-filters="sRGB">
<feFlood flood-opacity="0" result="BackgroundImageFix"/>
<feColorMatrix in="SourceAlpha" type="matrix" values="0 0 0 0 0 0 0 0 0 0 0 0 0 0 0 0 0 0 127 0"/>
<feOffset dx="-1.62259" dy="1.62259"/>
<feColorMatrix type="matrix" values="0 0 0 0 0 0 0 0 0 0 0 0 0 0 0 0 0 0 0.25 0"/>
<feBlend mode="normal" in2="BackgroundImageFix" result="effect1_dropShadow"/>
<feBlend mode="normal" in="SourceGraphic" in2="effect1_dropShadow" result="shape"/>
</filter>
<filter id="filter1_i" x="59.6776" y="5.35229" width="62.1299" height="36.52" filterUnits="userSpaceOnUse" color-interpolation-filters="sRGB">
<feFlood flood-opacity="0" result="BackgroundImageFix"/>
<feBlend mode="normal" in="SourceGraphic" in2="BackgroundImageFix" result="shape"/>
<feColorMatrix in="SourceAlpha" type="matrix" values="0 0 0 0 0 0 0 0 0 0 0 0 0 0 0 0 0 0 127 0" result="hardAlpha"/>
<feOffset dx="-9.73553" dy="3.24518"/>
<feComposite in2="hardAlpha" operator="arithmetic" k2="-1" k3="1"/>
<feColorMatrix type="matrix" values="0 0 0 0 1 0 0 0 0 1 0 0 0 0 1 0 0 0 0.25 0"/>
<feBlend mode="normal" in2="shape" result="effect1_innerShadow"/>
</filter>
<filter id="filter2_i" x="2.36206" y="0.0715332" width="75.322" height="43.1843" filterUnits="userSpaceOnUse" color-interpolation-filters="sRGB">
<feFlood flood-opacity="0" result="BackgroundImageFix"/>
<feBlend mode="normal" in="SourceGraphic" in2="BackgroundImageFix" result="shape"/>
<feColorMatrix in="SourceAlpha" type="matrix" values="0 0 0 0 0 0 0 0 0 0 0 0 0 0 0 0 0 0 127 0" result="hardAlpha"/>
<feOffset dx="-9.73553" dy="3.24518"/>
<feComposite in2="hardAlpha" operator="arithmetic" k2="-1" k3="1"/>
<feColorMatrix type="matrix" values="0 0 0 0 1 0 0 0 0 1 0 0 0 0 1 0 0 0 0.25 0"/>
<feBlend mode="normal" in2="shape" result="effect1_innerShadow"/>
</filter>
</defs>
</svg>

<svg xmlns="http://www.w3.org/2000/svg" width="122" height="45" fill="none"><g filter="url(#a)"><g filter="url(#b)"><path fill="#FF71C6" d="m74.61 38.007-9.17-10.753a2.215 2.215 0 0 0-1.8-.775c-1.861.098-3.004-2.005-1.91-3.513l3.957-5.449a5.426 5.426 0 0 1 3.497-2.164l50.056-8.366c.5-.084.954.307.945.815l-.129 7.066a.804.804 0 0 1-.148.451c-8.417 11.896-20.087 21.158-39.42 24.826-2.197.416-4.428-.437-5.878-2.138Z"/></g><path stroke="#1F2024" stroke-width="3.245" d="m74.61 38.007-9.17-10.753a2.215 2.215 0 0 0-1.8-.775c-1.861.098-3.004-2.005-1.91-3.513l3.957-5.449a5.426 5.426 0 0 1 3.497-2.164l50.056-8.366c.5-.084.954.307.945.815l-.129 7.066a.804.804 0 0 1-.148.451c-8.417 11.896-20.087 21.158-39.42 24.826-2.197.416-4.428-.437-5.878-2.138Z"/><g filter="url(#c)"><path fill="#FFFA8F" d="M51.265 39.816C62.706 28.418 69.387 19.304 75.728 6.231c1.166-2.404-.998-5.034-3.608-4.457C48.052 7.096 28.633 9.912 4.814 9.547a.816.816 0 0 0-.83.812v3.368c0 .144.035.28.11.404 4.596 7.617 20.63 21.768 41.32 27.303 2.094.56 4.316-.088 5.851-1.618Z"/></g><path stroke="#1F2024" stroke-width="3.245" d="M51.265 39.816C62.706 28.418 69.387 19.304 75.728 6.231c1.166-2.404-.998-5.034-3.608-4.457C48.052 7.096 28.633 9.912 4.814 9.547a.816.816 0 0 0-.83.812v3.368c0 .144.035.28.11.404 4.596 7.617 20.63 21.768 41.32 27.303 2.094.56 4.316-.088 5.851-1.618Z"/><path fill="#1F2024" d="M58.702 23.708c-.452-4.672-44.166-12.36-45.673-10.4-1.508 1.96 7.356 14.169 18.088 17.786 13.416 4.523 28.037-2.713 27.585-7.386Z"/><mask id="d" width="47" height="21" x="12" y="12" mask-type="alpha" maskUnits="userSpaceOnUse"><path fill="#1F2024" d="M58.702 23.708c-.452-4.672-44.166-12.36-45.673-10.4-1.508 1.96 7.355 14.169 18.088 17.786 13.415 4.523 28.037-2.713 27.585-7.386Z"/></mask><g fill="#fff" mask="url(#d)"><path d="M38.21 5.273h3.297L26.144 37.725h-3.297L38.21 5.273ZM26.446 5.273h9.788L20.87 37.725h-9.787L26.446 5.273Z"/></g><path fill="#1F2024" d="M69.716 23.708c.452-4.672 44.166-12.36 45.673-10.4 1.508 1.96-7.356 14.169-18.088 17.786-13.416 4.523-28.037-2.713-27.585-7.386Z"/><mask id="e" width="47" height="21" x="69" y="12" mask-type="alpha" maskUnits="userSpaceOnUse"><path fill="#1F2024" d="M69.716 23.708c.452-4.672 44.166-12.36 45.673-10.4 1.508 1.96-7.356 14.169-18.088 17.786-13.416 4.523-28.037-2.713-27.585-7.386Z"/></mask><g fill="#fff" mask="url(#e)"><path d="M103.925 5.273h8.976L97.538 37.725h-8.976l15.363-32.452ZM97.434 5.273h3.297L85.369 37.725h-3.297L97.434 5.273Z"/></g></g><defs><filter id="a" width="121.068" height="44.807" x=".739" y=".072" color-interpolation-filters="sRGB" filterUnits="userSpaceOnUse"><feFlood flood-opacity="0" result="BackgroundImageFix"/><feColorMatrix in="SourceAlpha" values="0 0 0 0 0 0 0 0 0 0 0 0 0 0 0 0 0 0 127 0"/><feOffset dx="-1.623" dy="1.623"/><feColorMatrix values="0 0 0 0 0 0 0 0 0 0 0 0 0 0 0 0 0 0 0.25 0"/><feBlend in2="BackgroundImageFix" result="effect1_dropShadow"/><feBlend in="SourceGraphic" in2="effect1_dropShadow" result="shape"/></filter><filter id="b" width="62.13" height="36.52" x="59.678" y="5.352" color-interpolation-filters="sRGB" filterUnits="userSpaceOnUse"><feFlood flood-opacity="0" result="BackgroundImageFix"/><feBlend in="SourceGraphic" in2="BackgroundImageFix" result="shape"/><feColorMatrix in="SourceAlpha" result="hardAlpha" values="0 0 0 0 0 0 0 0 0 0 0 0 0 0 0 0 0 0 127 0"/><feOffset dx="-9.736" dy="3.245"/><feComposite in2="hardAlpha" k2="-1" k3="1" operator="arithmetic"/><feColorMatrix values="0 0 0 0 1 0 0 0 0 1 0 0 0 0 1 0 0 0 0.25 0"/><feBlend in2="shape" result="effect1_innerShadow"/></filter><filter id="c" width="75.322" height="43.184" x="2.362" y=".072" color-interpolation-filters="sRGB" filterUnits="userSpaceOnUse"><feFlood flood-opacity="0" result="BackgroundImageFix"/><feBlend in="SourceGraphic" in2="BackgroundImageFix" result="shape"/><feColorMatrix in="SourceAlpha" result="hardAlpha" values="0 0 0 0 0 0 0 0 0 0 0 0 0 0 0 0 0 0 127 0"/><feOffset dx="-9.736" dy="3.245"/><feComposite in2="hardAlpha" k2="-1" k3="1" operator="arithmetic"/><feColorMatrix values="0 0 0 0 1 0 0 0 0 1 0 0 0 0 1 0 0 0 0.25 0"/><feBlend in2="shape" result="effect1_innerShadow"/></filter></defs></svg>
